X:1
T:Courcelles, 86.86.66.86
T:Courcelles, 86.86.66.86
T:Anonymous, before 1922
T:Public Domain Courtesy of the Cyber Hymnal™
C:Anonymous, before 1922
Z:Public Domain
Z:Courtesy of the Cyber Hymnal™
%%score ( 1 2 ) ( 3 4 )
L:1/8
Q:1/4=110
M:4/4
K:G
V:1 treble 
V:2 treble 
V:3 bass 
V:4 bass 
V:1
 D2 | [B,G]2 [DG]2 [FA]2 [FA]2 | [GB]3 [Gc] [Gd]2 (dc) | [GB]2 [GB]2 [GA]2 [FA]2 | [DG]6 D2 | %5
 [B,G]2 [DG]2 [FA]2 [FA]2 | [GB]3 [Gc] [Gd]2 (dc) | [GB]2 [GB]2 [GA]2 [FA]2 | [DG]6 [Fd]2 | %9
 [FA]3 [EG] [DF]2 [EG]2 | [FA]4 z2 [Fd]2 | [FA]3 [EG] [DF]2 [EG]2 | [FA]4 z2 D2 | %13
 [DG]2 [DG]2 [FA]2 [FA]2 | [GB]3 [Gc] ([Gd]2 dc) | [GB]2 [GB]2 [GA]2 [FA]2 | [DG]6 |] %17
V:2
 D2 | x8 | x6 A2 | x8 | x6 D2 | x8 | x6 A2 | x8 | x8 | x8 | x8 | x8 | x6 D2 | x8 | x6 A2 | x8 | %16
 x6 |] %17
V:3
 D,2 | [G,,D,]2 [B,,G,]2 [D,D]2 [D,D]2 | [G,D]3 [G,A,] [G,B,]2 [F,D]2 | [G,D]2 D2 [D,D]2 [D,C]2 | %4
 [G,B,]6 D,2 | [G,,D,]2 [B,,G,]2 [D,D]2 [D,D]2 | [G,D]3 [G,A,] [G,B,]2 [F,D]2 | %7
 [G,D]2 D2 [D,D]2 [D,C]2 | [G,B,]6 [D,A,]2 | [D,D]3 [D,D] [D,A,]2 [D,A,]2 | [D,D]4 z2 [D,A,]2 | %11
 [D,D]3 [D,D] [D,A,]2 [D,A,]2 | [D,D]4 z2 F,2 | [B,,G,]2 [G,,B,]2 [D,D]2 [D,D]2 | %14
 [G,D]3 [G,A,] [G,B,]2 [F,D]2 | [G,D]2 D2 [C,E]2 (DC) | [G,,B,]6 |] %17
V:4
 D,2 | x8 | x8 | x2 (G,,B,,) x4 | x6 D,2 | x8 | x8 | x2 (G,,B,,) x4 | x8 | x8 | x8 | x8 | %12
 x6 (D,C,) | x8 | x8 | x2 (G,,B,,) x D,2 x | x6 |] %17

